svg/500/outlined/restore_page-fill.svg

<svg xmlns="http://www.w3.org/2000/svg" width="48" height="48" viewBox="0 -960 960 960"><path d="M482-253.63q76.958 0 130.164-53.206Q665.37-360.042 665.37-437q0-76.958-53.283-130.164-53.283-53.206-130.169-53.206-44.44 0-80.603 18.881-36.163 18.88-58.967 43.446V-628h-45v152h154v-45h-74.522q14.786-21.278 44.522-35.324Q451.084-570.37 482-570.37q58.804 0 96.087 37.283T615.37-437q0 58.804-37.283 96.587T482-302.63q-45.848 0-81.989-25.044Q363.87-352.717 350.109-393h-51q18.239 65.239 68 102.304Q416.87-253.63 482-253.63ZM222.152-74.022q-27.599 0-47.865-20.265-20.265-20.266-20.265-47.865v-675.696q0-27.697 20.265-48.033 20.266-20.337 47.865-20.337H563.63L806.218-643.63v501.478q0 27.599-20.337 47.865-20.336 20.265-48.033 20.265H222.152Z"/></svg>

<svg xmlns="http://www.w3.org/2000/svg" width="48" height="48" viewBox="0 -960 960 960"><path d="M482-253.63q76.96 0 130.16-53.21 53.21-53.2 53.21-130.16t-53.28-130.16q-53.29-53.21-130.17-53.21-44.44 0-80.6 18.88-36.17 18.88-58.97 43.45V-628h-45v152h154v-45h-74.52q14.78-21.28 44.52-35.32 29.73-14.05 60.65-14.05 58.8 0 96.09 37.28 37.28 37.29 37.28 96.09 0 58.8-37.28 96.59-37.29 37.78-96.09 37.78-45.85 0-81.99-25.04-36.14-25.05-49.9-65.33h-51q18.24 65.24 68 102.3 49.76 37.07 114.89 37.07ZM222.15-74.02q-27.6 0-47.86-20.27-20.27-20.26-20.27-47.86v-675.7q0-27.7 20.27-48.03 20.26-20.34 47.86-20.34h341.48l242.59 242.59v501.48q0 27.6-20.34 47.86-20.33 20.27-48.03 20.27h-515.7Z"/></svg>
